packages/foundations/assets/icons/functional/images/transportation/boat_12.svg

<svg width="12" height="12" viewBox="0 0 12 12" fill="none" xmlns="http://www.w3.org/2000/svg">
<g clip-path="url(#clip0_232_483)">
<path fill-rule="evenodd" clip-rule="evenodd" d="M3.71689 7.72413C3.94833 8.12151 4.20231 8.62622 4.59841 8.6261C4.99451 8.62598 5.24864 8.12063 5.48015 7.72377C5.71167 7.3269 6.28508 7.32687 6.51664 7.72371C6.7482 8.12055 6.95749 8.62611 7.39839 8.6261C7.83929 8.62609 8.04872 8.12034 8.2802 7.72368C8.51169 7.32702 9.08479 7.32688 9.31647 7.72342C9.54815 8.11997 9.86677 8.6261 10.1983 8.6261C10.5298 8.6261 10.7984 8.89473 10.7984 9.2261C10.7984 9.5338 10.5392 9.82966 10.1983 9.82603C9.69436 9.82066 9.22761 9.55729 8.79801 9.0359C8.35268 9.55954 7.88614 9.82294 7.39839 9.8261C6.91063 9.82926 6.44398 9.56605 5.99841 9.0365C5.52782 9.5629 5.06115 9.8261 4.59841 9.8261C4.13567 9.8261 3.66894 9.5631 3.19821 9.0371C2.74418 9.5631 2.27758 9.8261 1.79841 9.8261C1.46704 9.8261 1.19841 9.55747 1.19841 9.2261C1.19841 8.89473 1.46704 8.6261 1.79841 8.6261C2.13109 8.6261 2.4485 8.12151 2.67994 7.72413C2.91138 7.32675 3.48545 7.32675 3.71689 7.72413ZM5.7546 2.20676C6.4608 2.3129 7.26207 2.88251 8.15841 3.9156L10.0875 3.55267C10.5693 3.462 10.9865 3.9746 10.7184 4.44175C10.3195 5.13653 9.9195 5.83112 9.51836 6.52552C9.35299 6.81268 8.98615 6.91141 8.69899 6.74605C8.43234 6.59249 8.30759 6.2261 8.47847 5.92667C8.66006 5.60847 8.84298 5.29048 9.02721 4.9727L2.39841 6.2261V6.8261C2.39841 7.15747 2.12978 7.4261 1.79841 7.4261C1.49071 7.4261 1.20055 7.1811 1.19841 6.8261C1.19721 6.62611 1.19721 6.42611 1.19841 6.2261C1.19841 5.61977 1.50478 5.17805 2.20214 5.03645C2.37547 5.00455 2.54848 4.97212 2.72118 4.93915C2.89848 3.81882 2.99615 3.17953 3.01419 3.02127C3.04125 2.78387 3.22604 2.55211 3.49841 2.49974C4.03603 2.39639 4.57452 2.29423 5.1139 2.19326C5.32395 2.15951 5.53376 2.17357 5.7546 2.20676ZM5.32102 3.37513C5.17065 3.40258 4.78165 3.4763 4.15401 3.5963L3.99741 4.6986L6.76759 4.1771C6.1886 3.63034 5.83872 3.44451 5.52951 3.38546C5.46655 3.37344 5.41942 3.36005 5.32102 3.37513Z" fill="#1A1C1F"/>
</g>
<defs>
<clipPath id="clip0_232_483">
<rect width="12" height="12" fill="white"/>
</clipPath>
</defs>
</svg>

<svg xmlns="http://www.w3.org/2000/svg" width="12" height="12" fill="none"><g clip-path="url(#a)"><path fill="#1A1C1F" fill-rule="evenodd" d="M3.717 7.724c.231.398.485.902.881.902.397 0 .65-.505.882-.902a.6.6 0 0 1 1.037 0c.231.397.44.902.881.902s.65-.506.882-.902a.6.6 0 0 1 1.036 0c.232.396.55.902.882.902a.6.6 0 0 1 .6.6c0 .308-.259.604-.6.6q-.755-.008-1.4-.79-.668.786-1.4.79-.73.005-1.4-.79-.705.79-1.4.79-.694 0-1.4-.789-.68.79-1.4.79a.6.6 0 0 1 0-1.2c.333 0 .65-.505.882-.903a.6.6 0 0 1 1.037 0m2.038-5.517q1.059.16 2.403 1.709l1.93-.363c.481-.091.899.422.63.889q-.598 1.043-1.2 2.084a.6.6 0 0 1-.819.22.607.607 0 0 1-.22-.82q.272-.477.548-.953L2.398 6.226v.6a.6.6 0 0 1-1.2 0v-.6c0-.606.307-1.048 1.004-1.19q.26-.047.52-.097a89 89 0 0 0 .292-1.918.61.61 0 0 1 .484-.521 338 338 0 0 1 1.616-.307c.21-.033.42-.02.64.014M5.32 3.375q-.226.041-1.167.221L3.997 4.7l2.77-.522c-.578-.547-.928-.732-1.237-.792-.063-.012-.11-.025-.209-.01" clip-rule="evenodd"/></g><defs><clipPath id="a"><path fill="#fff" d="M0 0h12v12H0z"/></clipPath></defs></svg>
